X:1
T: Hugh Dunlop
C:
R:Reel
Q: 232
K:D
M:4/4
L:1/8
|:A2|Ad cd Ad fd|eA fA gA fA|Aa gf ed cd|ed cB A2 FG|
Ad cd Ad fd|eA fA gA fA|ag fe db ag|f2 d2 d2:|
|:fg|ag af da fd|gf ed dc BA|ce Ae ce Ae|AB cd ef ge|
ag af da fd|gf ed dc BA|FA dA Bg ec|d2 d2 d2:|
